material/.icons/material/digital-ocean.svg

<svg xmlns="http://www.w3.org/2000/svg" viewBox="0 0 24 24"><path d="M6 12H2C2 6.5 6.5 2 12 2s10 4.5 10 10-4.5 10-10 10v-4H8v-4h4v4c3.32 0 6-2.69 6-6s-2.69-6-6-6-6 2.69-6 6m2 6v3H5v-3h3m-5-2h2v2H3v-2z"/></svg>

<?xml version="1.0" encoding="UTF-8"?><!DOCTYPE svg PUBLIC "-//W3C//DTD SVG 1.1//EN" "http://www.w3.org/Graphics/SVG/1.1/DTD/svg11.dtd"><svg xmlns="http://www.w3.org/2000/svg" xmlns:xlink="http://www.w3.org/1999/xlink" version="1.1" id="mdi-digital-ocean" width="24" height="24" viewBox="0 0 24 24"><path d="M6 12H2C2 6.5 6.5 2 12 2C17.5 2 22 6.5 22 12C22 17.5 17.5 22 12 22V18H8V14H12V18C15.32 18 18 15.31 18 12C18 8.69 15.31 6 12 6C8.69 6 6 8.69 6 12M8 18V21H5V18H8M3 16H5V18H3V16Z" /></svg>
